X: 35256
T: Rose And Kathleen's
R: slip jig
M: 9/8
K: Gmajor
G2 g gab agf|g2 d d2 B B2 G|G2 g gab agf|g2 d d2 B B2 G|
e2 g ged ged|e2 g ged B2 A|G2 d dgg gab|G ddd ggg ab|
a3 afd afd|e2 g ged e2 d|G2 d ded ded|ded ded ded:|
e d3 c2 BAG|e d3 c2 BAG|e g3 ed e2 G|e g3 ed e2 A|
B g3 ed e2 A|GBg ged edB|A2 d ded ded|ded ded ded:|

